src/assets/icons/arrows-alt.svg

<svg width="14" height="14" viewBox="0 0 14 14" fill="none" xmlns="http://www.w3.org/2000/svg">
<g id="arrows-alt">
<g clip-path="url(#clip0_154_2615)">
<path id="Vector" d="M7.42426 0.175736C7.36674 0.11821 7.30044 0.0748071 7.22967 0.0455272C7.15893 0.0161913 7.08135 0 7 0C6.84645 0 6.69289 0.0585786 6.57574 0.175736L4.57574 2.17574C4.34142 2.41005 4.34142 2.78995 4.57574 3.02426C4.81005 3.25858 5.18995 3.25858 5.42426 3.02426L6.4 2.04853V6.4H2.04853L3.02426 5.42426C3.25858 5.18995 3.25858 4.81005 3.02426 4.57574C2.78995 4.34142 2.41005 4.34142 2.17574 4.57574L0.175736 6.57574C0.0585786 6.69289 0 6.84645 0 7C0 7.08135 0.0161913 7.15893 0.0455272 7.22967C0.0748071 7.30044 0.11821 7.36674 0.175736 7.42426L2.17574 9.42426C2.41005 9.65858 2.78995 9.65858 3.02426 9.42426C3.25858 9.18995 3.25858 8.81005 3.02426 8.57574L2.04853 7.6H6.4V11.9515L5.42426 10.9757C5.18995 10.7414 4.81005 10.7414 4.57574 10.9757C4.34142 11.2101 4.34142 11.5899 4.57574 11.8243L6.57574 13.8243C6.63326 13.8818 6.69956 13.9252 6.77033 13.9545C6.83207 13.9801 6.89901 13.9957 6.96912 13.9992C6.97935 13.9997 6.98964 14 7 14C7.08135 14 7.15893 13.9838 7.22967 13.9545C7.30044 13.9252 7.36674 13.8818 7.42426 13.8243L9.42426 11.8243C9.65858 11.5899 9.65858 11.2101 9.42426 10.9757C9.18995 10.7414 8.81005 10.7414 8.57574 10.9757L7.6 11.9515V7.6H11.9515L10.9757 8.57574C10.7414 8.81005 10.7414 9.18995 10.9757 9.42426C11.2101 9.65858 11.5899 9.65858 11.8243 9.42426L13.8243 7.42426C13.8818 7.36674 13.9252 7.30044 13.9545 7.22967C13.9838 7.15893 14 7.08135 14 7C14 6.98964 13.9997 6.97935 13.9992 6.96912C13.9957 6.89901 13.9801 6.83207 13.9545 6.77033C13.9252 6.69956 13.8818 6.63326 13.8243 6.57574L11.8243 4.57574C11.5899 4.34142 11.2101 4.34142 10.9757 4.57574C10.7414 4.81005 10.7414 5.18995 10.9757 5.42426L11.9515 6.4H7.6V2.04853L8.57574 3.02426C8.81005 3.25858 9.18995 3.25858 9.42426 3.02426C9.65858 2.78995 9.65858 2.41005 9.42426 2.17574L7.42426 0.175736Z" fill="black"/>
</g>
</g>
<defs>
<clipPath id="clip0_154_2615">
<rect width="14" height="14" fill="white"/>
</clipPath>
</defs>
</svg>

<svg xmlns="http://www.w3.org/2000/svg" fill="none" viewBox="0 0 14 14"><g clip-path="url(#a)"><path fill="#000" d="M7.424.176a.6.6 0 0 0-.848 0l-2 2a.6.6 0 1 0 .848.848L6.4 2.05V6.4H2.049l.975-.976a.6.6 0 1 0-.848-.848l-2 2a.6.6 0 0 0 0 .848l2 2a.6.6 0 1 0 .848-.848L2.05 7.6H6.4v4.352l-.976-.976a.6.6 0 1 0-.848.848l2 2a.6.6 0 0 0 .848 0l2-2a.6.6 0 0 0-.848-.848l-.976.975V7.6h4.352l-.976.976a.6.6 0 1 0 .848.848l2-2a.6.6 0 0 0 0-.848l-2-2a.6.6 0 0 0-.848.848l.975.976H7.6V2.049l.976.975a.6.6 0 1 0 .848-.848z"/></g><defs><clipPath id="a"><path fill="#fff" d="M0 0h14v14H0z"/></clipPath></defs></svg>
